X: 12
T: Toormore, The
Z: RannaC
S: https://thesession.org/tunes/110#setting50518
R: slide
M: 12/8
L: 1/8
K: Dmin
|:A,2D DCD F2 G A2 c |G2 G GAG E2G c3|
A,2D DCD F2 G A2 c|1G2F EDC D3D3:|2G2F EDC D3 F2G ||
|:A2A GAG F2F EFE |D2D 3FED C2A, A,2G, |
A,2D DCD F2G A2c|1G2F EDC D3 F2G :|2 G2F EDC D3D3 ||

%-------------------- TUNE SEPARATOR --------------------%

